X:18
T:No.118 Green Grow The Rushes
M:4/4
L:1/8
C:highland
K:D
A>FA>B d>gf>e|(3ded B>G d>GB>G|
(3ABA F>A d>ef>a|[1(3gag e>g f2d>B:|
[2(3gag e>g f2d>e||f<aa>f d>fa>f|
g2b>g d>gb>g|f<aa>f d>fa>f|
[1(3gab f>g e2d>e:|[2(3gab f>g e2d2||
